<?xml version="1.0" encoding="UTF-8"?>
<map version="1.10" tiledversion="1.10.2" orientation="orthogonal" renderorder="right-down" width="9" height="16" tilewidth="32" tileheight="32" infinite="0" nextlayerid="4" nextobjectid="1">
 <tileset firstgid="1" source="dungeon.tsx"/>
 <tileset firstgid="2521" source="fire.tsx"/>
 <layer id="2" name="background" width="9" height="16">
  <data encoding="csv">
6556,6557,6558,6559,6560,6561,6562,6563,6564,
6636,6637,6638,6639,6640,6641,6642,6643,6644,
6716,6717,6718,6719,6720,6721,6722,6723,6724,
6796,6797,6798,6799,6800,6801,6802,6803,6804,
6876,6877,6878,6879,6880,6881,6882,6883,6884,
6956,6957,6958,6959,6960,6961,6962,6963,6964,
7036,7037,7038,7039,7040,7041,7042,7043,7044,
7116,7117,7118,7119,7120,7121,7122,7123,7124,
7196,7197,7198,7199,7200,7201,7202,7203,7204,
7276,7277,7278,7279,7280,7281,7282,7283,7284,
7356,7357,7358,7359,7360,7361,7362,7363,7364,
7436,7437,7438,7439,7440,7441,7442,7443,7444,
7516,7517,7518,7519,7520,7521,7522,7523,7524,
7596,7597,7598,7599,7600,7601,7602,7603,7604,
7676,7677,7678,7679,7680,7681,7682,7683,7684,
7756,7757,7758,7759,7760,7761,7762,7763,7764
</data>
 </layer>
 <layer id="3" name="walkable" width="9" height="16">
  <data encoding="csv">
808,809,0,1570,1571,1572,1573,0,1575,
850,851,1611,1612,1613,1614,1615,1616,1617,
892,0,1653,1654,0,1656,1657,1658,1659,
934,935,0,1696,1697,1698,0,1700,1701,
976,0,1112,1113,1114,1115,1116,0,806,
1018,1019,1154,1155,1156,1157,1158,847,848,
1060,1061,1196,1197,1198,1199,1200,0,890,
1665,0,1238,1239,1240,1241,1242,931,932,
1707,1708,1280,1281,1282,1283,1284,973,974,
1715,0,1322,1323,1324,1325,1326,0,1016,
1757,1758,1364,1365,1366,1367,1368,1057,1058,
1799,0,1406,1407,1408,1409,1410,0,1016,
1841,0,1448,1449,1450,1451,1452,1057,1058,
1883,1884,1490,1491,1492,1493,1494,0,1714,
1530,0,1532,1533,1534,1535,1536,1755,1756,
1461,1567,1568,0,1570,0,1572,1573,1574
</data>
 </layer>
</map>
