<?xml version="1.0" encoding="UTF-8"?>
<map version="1.10" tiledversion="1.10.2" orientation="orthogonal" renderorder="right-down" width="18" height="32" tilewidth="32" tileheight="32" infinite="0" nextlayerid="3" nextobjectid="1">
 <tileset firstgid="1" source="trees.tsx"/>
 <tileset firstgid="8751" source="rock.tsx"/>
 <layer id="1" name="forest" width="18" height="32">
  <data encoding="csv">
493,984,985,986,987,988,7773,7774,7702,7703,7704,7703,1054,1054,1055,1056,1057,1058,
563,1054,1055,1056,1057,1058,7843,7844,7772,7773,7774,7773,1124,1124,1125,1126,1127,1128,
633,1124,1125,1126,1127,1128,4274,4274,4275,4276,4277,4278,1194,1194,1195,1196,1197,1198,
703,1194,1195,1196,1197,1198,4344,984,985,986,987,988,4484,4485,4486,4487,4484,4484,
4275,4276,4274,4274,4275,4276,4277,1054,1055,1056,1057,1058,4274,4275,4276,4277,4278,7982,
4345,4346,4344,4344,4345,4346,4347,1124,1125,1126,1127,1128,4344,4345,4346,4347,4348,6032,
4415,4416,4414,4414,4415,4416,4417,1194,1195,1196,1197,1198,4414,4415,4416,984,985,986,
4485,4486,4484,4484,4485,4486,4487,4488,4417,4418,5744,4902,4484,4485,4486,1054,1055,1056,
7912,7702,7703,7704,5605,4484,4485,4486,4487,984,985,986,987,988,4276,1124,1125,1126,
7702,7703,7704,7774,5675,984,985,986,987,988,1055,1056,1057,1058,4346,1194,1195,1196,
7772,7773,7774,7844,7702,1054,984,985,986,987,988,1126,1127,1128,4416,4417,4764,4765,
7842,7843,7844,7914,7772,1124,1054,1055,1056,1057,1058,988,1197,984,985,986,987,988,
7912,7913,7914,7984,7842,1194,1124,1125,1126,1127,1128,1058,984,985,986,987,988,1058,
7982,7983,7984,5743,7912,984,985,986,987,988,1198,1128,984,985,986,987,988,1128,
563,564,5812,5813,7982,1054,1055,1056,1057,1058,1197,1198,1054,1055,1056,1057,1058,1198,
633,634,5882,5883,5884,1124,1125,1126,1127,1128,4765,4488,984,985,986,987,988,7984,
1194,1195,1196,1197,2348,2349,2350,2351,2352,2353,4095,4096,4097,4098,4099,4100,1058,1197,
1264,1193,1194,1195,2418,2419,2420,2421,2422,4095,4095,4096,4097,4098,4099,4100,1128,1267,
1334,1263,1264,1265,2488,2489,2490,2491,2492,2493,2494,2495,4095,4096,4097,4098,4099,4100,
1404,1333,1334,1335,2558,2559,2560,2561,2562,2563,4095,4096,4095,4096,4097,4098,4099,4100,
359,360,359,360,2628,2629,2630,2631,2632,2633,2634,2635,2636,4095,4096,4097,4098,4099,
429,430,429,430,2698,2699,2700,2701,2702,2703,2704,2705,2706,2707,2565,2566,2567,500,
2351,2352,2353,2348,2768,2769,4095,4096,4097,4098,4099,4100,4095,4096,4097,4098,4099,4100,
2421,2422,2608,2609,2610,2611,2608,2609,2610,2611,2612,2845,4095,4096,4097,4098,4099,4100,
2491,2492,2678,2679,2680,2681,2678,2679,2680,2681,2682,2915,2916,2917,2421,2422,2423,2424,
2561,2562,2748,2749,2750,2751,2748,2749,2608,2609,2610,2611,2612,2987,2491,2492,2493,2494,
2631,2632,2818,2819,2820,2821,2818,2819,2678,2679,2680,2681,2682,2560,2561,2562,2563,2564,
2701,2702,2748,2749,2750,2751,2752,2978,2748,2749,2750,2751,2752,2630,2631,2632,2633,2634,
2771,2772,2818,2819,2820,2821,2822,4096,2818,2819,2820,2821,2822,2700,2701,2702,2703,2704,
2841,2842,2843,2838,2839,2840,2841,2842,2843,2844,2845,2768,2769,2770,2771,2772,2773,2774,
2911,2912,2913,2908,2909,2910,2911,2912,2913,2914,2915,2838,2839,2840,2841,2842,2843,2844,
2981,2982,2983,2978,2979,2980,2981,2982,2983,2984,2985,2908,2909,2910,2911,2912,2913,2914
</data>
 </layer>
 <layer id="2" name="path" width="18" height="32">
  <data encoding="csv">
0,0,0,0,0,0,0,0,0,0,0,0,0,0,0,0,0,0,
0,0,0,10427,10427,10427,10427,10427,0,0,0,0,0,10427,10427,10427,0,10427,
0,0,0,0,0,0,0,0,0,0,0,0,0,10427,0,10427,0,10427,
0,0,0,0,0,0,0,0,10427,10427,10427,10427,0,10427,0,10427,10427,10427,
0,0,0,0,0,0,0,0,10427,0,10427,0,0,10427,0,0,0,0,
10427,10427,10427,10427,10427,10427,10427,10427,10427,0,10427,10427,10427,10427,0,0,0,0,
10427,10427,10427,10427,10427,10427,10427,10427,10427,0,0,0,0,0,0,0,0,0,
0,0,0,0,0,0,0,10427,10427,0,0,0,0,10427,10427,10427,10427,10427,
0,0,0,0,0,0,0,10427,10427,0,0,0,0,10427,10427,10427,10427,10427,
0,0,0,10427,0,0,0,10427,10427,0,0,0,0,10427,10427,0,0,0,
0,0,0,10427,0,0,0,10427,10427,0,0,0,0,10427,10427,0,0,0,
0,0,0,10427,0,0,0,10427,10427,0,0,0,0,10427,10427,0,0,0,
0,0,0,10427,0,0,0,10427,10427,10427,10427,10427,10427,10427,10427,10615,10427,0,
0,0,0,0,0,0,0,10427,10427,10427,10427,10427,10427,10427,10427,0,10427,0,
0,0,0,0,0,0,0,10427,10427,0,0,0,10427,0,0,0,10427,0,
0,0,0,0,0,0,0,10427,10427,0,0,0,10427,0,0,0,10427,10615,
10427,10427,10427,10427,10427,10427,10427,10427,10427,0,0,0,10427,0,0,0,0,0,
10427,10427,10427,10427,10427,10427,10427,10427,10427,10427,10427,10427,10427,0,0,0,0,0,
0,0,0,0,0,0,10552,10615,0,0,0,0,0,0,0,10615,10615,0,
0,0,0,0,0,0,10614,10677,0,0,0,0,0,0,0,10615,0,0,
0,0,0,0,0,0,10552,10615,10615,10615,10615,10615,10615,10615,10615,10615,10615,10615,
0,0,0,0,0,0,10614,10677,0,0,0,0,10615,0,0,0,0,0,
10492,10493,10551,10492,10493,10492,10493,10739,0,0,0,0,10615,10615,10615,0,0,0,
10554,10555,10613,10554,10555,10554,10555,10801,0,0,0,0,0,0,0,0,0,0,
0,0,10675,0,0,0,10552,10677,10495,10495,10496,10495,10496,10495,10495,10495,10496,0,
0,0,10551,0,0,0,10552,10739,0,0,0,0,0,0,0,0,10615,0,
0,0,10551,0,0,0,10614,10801,10616,10616,10616,10616,10617,10618,0,0,10554,0,
0,0,10613,0,0,0,10616,10617,10618,10616,10617,10616,10617,10618,0,0,10621,0,
0,0,10675,0,0,0,0,0,0,0,0,0,10680,10680,0,0,10554,0,
0,0,10615,10615,10615,10615,0,0,0,0,0,0,10680,10680,0,0,10554,10615,
0,0,0,0,0,10615,10615,0,0,0,0,0,10742,10742,0,0,0,0,
0,0,0,0,0,0,0,0,0,0,0,0,10804,10804,0,0,0,0
</data>
 </layer>
</map>
