<?xml version="1.0" encoding="UTF-8"?>
<map version="1.10" tiledversion="1.10.2" orientation="orthogonal" renderorder="right-down" width="30" height="20" tilewidth="60" tileheight="60" infinite="0" nextlayerid="3" nextobjectid="1">
 <tileset firstgid="1" source="portal.tsx"/>
 <layer id="1" name="Tile Layer 1" width="30" height="20" opacity="0.6">
  <data encoding="csv">
454,454,454,454,454,454,0,0,0,0,0,0,0,0,422,422,422,422,422,422,422,422,422,422,422,422,422,422,422,422,
454,454,454,454,454,454,0,422,422,422,422,422,422,0,422,422,0,0,0,0,422,422,422,422,422,422,422,422,422,422,
454,454,454,454,454,454,0,422,422,0,0,0,422,0,422,422,0,0,0,0,422,0,0,0,0,0,0,0,0,0,
454,454,454,454,454,454,0,422,422,422,0,0,0,0,422,422,0,0,0,0,422,0,0,0,542,542,0,0,0,0,
454,454,454,454,454,454,0,422,422,422,422,422,0,0,422,422,0,0,0,0,422,0,0,0,542,542,542,0,0,0,
454,454,454,454,454,454,0,422,422,422,422,422,422,422,422,422,0,0,0,0,422,0,0,0,542,0,542,0,0,0,
454,454,454,454,454,454,0,0,0,0,0,0,0,0,422,422,0,0,0,0,422,0,0,0,0,0,542,0,0,0,
0,422,0,0,0,0,0,0,0,0,0,0,0,0,422,422,0,0,0,0,422,0,542,542,542,542,542,0,0,0,
0,422,422,380,422,380,402,380,380,380,402,380,380,402,422,422,0,0,0,0,542,542,542,0,0,0,0,0,0,0,
0,422,422,422,402,380,380,380,402,422,380,402,380,402,422,422,0,0,0,0,422,0,0,0,0,0,0,0,0,0,
0,422,422,422,0,0,0,0,0,0,0,0,0,0,0,0,0,0,0,0,422,0,0,0,422,422,422,0,0,0,
0,422,422,422,0,0,0,0,0,673,673,673,673,673,673,673,673,673,0,0,422,0,0,0,422,0,422,0,0,0,
0,422,422,422,0,0,0,0,0,673,673,673,673,673,673,673,673,673,0,0,422,0,0,0,0,0,422,0,0,0,
0,422,422,422,422,422,0,0,0,673,0,0,0,0,0,0,0,0,0,0,422,0,0,0,0,0,422,0,0,0,
0,0,0,0,0,0,0,0,0,673,673,0,0,0,0,0,0,0,0,0,422,422,422,422,422,422,422,0,0,0,
0,0,0,0,0,0,0,0,0,673,673,0,0,0,0,0,0,0,0,0,0,0,0,0,0,0,0,0,0,0,
0,0,0,0,0,0,0,0,0,673,673,673,673,454,454,454,454,454,454,454,454,454,454,454,0,0,0,0,0,0,
0,0,0,0,0,0,0,0,0,673,673,673,673,673,0,0,0,0,0,0,0,0,0,454,0,0,454,454,454,0,
0,0,0,0,0,0,0,0,0,0,0,0,0,0,0,0,0,0,0,0,0,0,0,454,454,454,454,0,0,0,
0,0,0,0,0,0,0,0,0,0,0,0,0,0,0,0,0,0,0,0,0,0,0,0,0,0,0,0,0,0
</data>
 </layer>
 <layer id="2" name="Tile Layer 2" width="30" height="20" opacity="0.19">
  <data encoding="csv">
0,0,0,0,0,0,0,0,0,0,0,0,0,363,363,363,363,363,0,0,0,0,0,0,0,0,0,0,0,0,
0,0,0,0,0,0,0,0,0,0,363,363,363,363,0,0,0,0,363,363,363,363,0,0,0,0,0,0,0,0,
0,0,0,0,0,0,0,0,363,363,0,0,0,0,0,0,0,0,0,0,0,363,363,363,0,0,0,0,0,0,
0,0,0,0,0,0,0,363,363,0,0,0,0,0,0,0,363,0,0,0,0,0,0,0,363,363,0,0,0,0,
0,0,0,0,0,0,363,363,363,363,363,363,363,0,0,0,363,0,0,0,0,0,0,0,0,363,363,0,0,0,
0,0,0,0,0,363,363,363,0,0,0,0,0,363,363,0,363,0,0,0,0,0,0,0,0,0,363,363,0,0,
0,0,0,0,0,363,0,0,0,0,0,0,0,0,0,363,0,363,0,0,0,0,0,0,0,0,0,363,363,0,
0,0,0,0,363,363,0,0,0,363,0,0,0,0,0,0,363,363,0,0,0,0,0,0,0,0,0,0,363,0,
0,0,0,0,363,0,0,0,0,363,0,0,0,0,0,0,0,363,363,0,0,0,0,0,0,0,0,0,0,363,
0,0,0,0,363,0,0,0,363,363,0,0,0,0,0,0,0,363,0,363,363,0,0,0,0,0,0,0,0,363,
0,0,0,363,363,0,0,0,363,0,0,0,0,0,0,0,0,363,363,363,363,0,0,0,0,0,0,0,0,363,
0,0,0,363,363,0,0,0,363,0,0,0,0,0,0,0,0,0,0,0,363,363,0,0,0,0,0,0,0,0,
0,0,363,0,363,0,0,0,363,0,0,0,0,0,0,363,363,0,0,0,363,363,0,0,0,0,0,0,0,0,
0,0,363,0,363,0,0,0,0,363,0,0,363,363,363,363,0,0,0,0,363,363,0,0,0,0,0,0,0,0,
0,0,363,363,363,0,0,0,0,363,363,363,363,0,0,0,0,0,0,363,363,363,0,0,0,0,0,0,0,0,
0,0,0,363,363,363,363,363,363,363,363,0,0,0,0,0,0,0,0,363,363,0,0,0,0,0,0,0,0,363,
0,0,0,0,0,363,363,0,0,0,363,363,0,0,0,0,0,0,363,363,0,0,0,0,0,0,0,0,0,363,
0,0,0,0,0,0,363,363,363,0,0,363,363,363,363,363,363,363,363,363,0,0,0,0,0,0,0,0,363,363,
0,0,0,0,0,0,0,0,363,363,363,363,363,363,0,0,0,0,363,0,0,0,0,0,0,0,363,363,363,0,
0,0,0,0,0,0,0,0,0,0,0,0,0,0,0,0,0,0,363,363,363,0,363,363,363,363,363,0,0,0
</data>
 </layer>
</map>
