<?xml version="1.0" encoding="UTF-8"?>
<map version="1.10" tiledversion="1.10.2" orientation="orthogonal" renderorder="right-down" width="9" height="16" tilewidth="32" tileheight="32" infinite="0" nextlayerid="4" nextobjectid="1">
 <tileset firstgid="1" source="rock.tsx"/>
 <tileset firstgid="5829" source="water.tsx"/>
 <tileset firstgid="15509" source="fire.tsx"/>
 <layer id="2" name="background" width="9" height="16">
  <data encoding="csv">
5507,5508,5509,5507,5506,5507,5508,5509,5445,
5569,5570,5571,5569,5568,5569,5570,5571,5507,
5631,5632,5633,5631,5630,5375,5376,5633,5569,
5377,5378,5379,5444,5495,5437,5495,5446,5447,
5439,5440,5444,5495,5507,5508,5375,5376,5509,
5501,5502,5506,5568,5569,5375,5376,5438,5571,
5563,5376,5568,5630,5631,5437,5438,5632,5633,
5447,5438,5630,5631,5632,5633,5377,5378,5379,
5509,5500,5501,5502,5503,5438,5439,5440,5441,
5571,5562,5563,5375,5376,5500,5501,5376,5377,
5633,5375,5376,5437,5438,5562,5563,5438,5439,
5181,5437,5438,5125,5126,5063,5064,5500,5501,
5376,5377,5378,5379,5380,5125,5126,5562,5563,
5438,5439,5440,5441,5442,5118,5119,5242,5243,
5500,5501,5502,5503,5504,5180,5495,5304,5305,
5562,5563,5564,5565,5566,5242,5243,5244,5245
</data>
 </layer>
 <layer id="3" name="walkable" width="9" height="16">
  <data encoding="csv">
6625,0,6713,6713,6625,0,6537,0,0,
6625,6537,6537,6537,6537,6537,6537,6537,6537,
6713,6625,0,6453,6713,0,6537,0,6540,
6453,6713,6625,6625,0,6625,6537,0,0,
0,11378,0,11291,6625,6713,6540,6540,0,
6540,6540,6715,6716,0,6625,6537,0,6365,
0,6540,0,0,11291,6713,6713,6625,6625,
0,0,6540,6365,0,0,6453,6713,6713,
6539,6540,0,6453,0,6625,6625,0,0,
0,6539,6540,11378,0,6713,6713,0,6625,
6539,6540,6540,6714,6539,6625,6717,6625,6713,
6540,0,0,6540,0,6713,0,6713,0,
0,0,6539,6540,6539,6540,0,0,6540,
0,6365,0,0,0,6539,6540,0,0,
6540,6453,0,6365,0,6714,6715,6540,6717,
6540,6714,6715,6453,6539,6540,6539,6540,6539
</data>
 </layer>
</map>
